X:1
T:Title
%%score { ( 1 4 5 ) | ( 2 3 ) }
L:1/8
M:3/4
K:Ab
V:1 treble nm="Grand Piano"
V:4 treble 
V:5 treble 
V:2 bass 
V:3 bass 
V:1
 z2 z2 z z/[Q:1/4=94] c/ | c>B A>G F>E | D6 | B>A G>F E>D | C6 | F>G A>F B>d | c6 | c>B A>G A>G | %8
[M:11/16] F/-F/-F/-F/-F/-F/-F/-F-<F |[M:1/16] A/ |[M:3/4] A>A A3- A/A/ | B>A G3- G/G/ | %12
 G>G G3- G/G/ |[M:11/16] A>GF/-F/-F/-F-<F |[M:1/16] A/ |[M:3/4] A>A A3- A/A/ | B>A G3- G/G/ | %17
 G>G G3- G/G/ |[M:11/16] A>GF/-F/-F/-F-<F |[M:1/16] F/ |[M:3/4] F>G A>B c>d | c6 | z2 c4 | z2 c4 | %24
 c>d z2 z z/ B/ |[M:11/16] A>GF/-F/-F/-F-<F |] %26
V:2
 z6 | F,2 [A,C]2 [A,C]2 | F,2 B,2 z z/[K:treble] B/ | F,2 [B,D]2 [B,D]2 | F,2 A,2 z z/ F/ | %5
 F,2 [A,C]>[A,C] [A,C]2 | [A,C]4 A,2 | F,2 [A,C]2 [A,C]2 | %8
[M:11/16] [F,C]/-[F,C]/-[F,C]/-[F,C]/-[F,C]/-[F,C]/-[F,C]/-[F,C]-<[F,C] |[M:1/16] z/ | %10
[M:3/4] F,2 [A,C]4 | [A,C]2 =E,4 | [G,B,]2 =E,4 |[M:11/16] [A,C]-<[A,C]F,/-F,/-F,/-F,-<F, | %14
[M:1/16] z/ |[M:3/4] F,2 [A,C]4 | [A,C]2 =E,4 | [G,B,]2 =E,4 | %18
[M:11/16] [A,C]-<[A,C]F,/-F,/-F,/-F,-<F, |[M:1/16] z/ |[M:3/4] F,2 [A,C]2 [A,C]2 | F,2 A,2 A,2 | %22
 F,2 [A,C]2 A,2 | F,2 [A,C]2 A,2 | F,2 [A,C]2 A,2 | %25
[M:11/16] [F,C]-<[F,C][F,A,C]/-[F,A,C]/-[F,A,C]/-[F,A,C]-<[F,A,C] |] %26
V:3
 x6 | x6 | z2 z2 B,2[K:treble] | x6 | z2 z2 F,2 | x6 | x6 | x6 |[M:11/16] x11/2 |[M:1/16] x/ | %10
[M:3/4] x6 | x6 | x6 |[M:11/16] x11/2 |[M:1/16] x/ |[M:3/4] x6 | x6 | x6 |[M:11/16] x11/2 | %19
[M:1/16] x/ |[M:3/4] x6 | x6 | x6 | x6 | x6 |[M:11/16] x11/2 |] %26
V:4
 x6 | x6 | x6 | x6 | x6 | x6 | z2 z2 C>d | x6 |[M:11/16] x11/2 |[M:1/16] x/ |[M:3/4] x6 | x6 | x6 | %13
[M:11/16] x11/2 |[M:1/16] x/ |[M:3/4] x6 | x6 | x6 |[M:11/16] x11/2 |[M:1/16] x/ |[M:3/4] x6 | %21
 z2 C2 z z/ c/ | c>c z2 z z/ B/ | A>B z2 z z/ c/ | z2 c4 |[M:11/16] x11/2 |] %26
V:5
 x6 | x6 | x6 | x6 | x6 | x6 | x6 | x6 |[M:11/16] x11/2 |[M:1/16] x/ |[M:3/4] x6 | x6 | x6 | %13
[M:11/16] x11/2 |[M:1/16] x/ |[M:3/4] x6 | x6 | x6 |[M:11/16] x11/2 |[M:1/16] x/ |[M:3/4] x6 | %21
 z2 z2 C2 | z2 z2 C2 | z2 z2 C2 | z2 z2 C2 |[M:11/16] x11/2 |] %26

